X:1
T:Also Heilig Ist der Tag
T:Also Heilig Ist der Tag
T:Ludwig Senfl, 1544
T:Public Domain Courtesy of the Cyber Hymnal™
C:Ludwig Senfl, 1544
Z:Public Domain
Z:Courtesy of the Cyber Hymnal™
%%score 1 ( 2 3 )
L:1/8
Q:1/4=130
M:3/4
K:C
V:1 treble 
V:2 bass 
V:3 bass 
V:1
 [B,E]4 [DF]2 | [EG]4 [CE]2 | [CF]4 [CE]2 | [B,D]4 z2 | [EG]4 [EA]2 | [GB]6 | [Gc]4 [GB]2 | %7
 [EA]4 [CE]2 | [DG]4 [DF]2 | [^CE]4 z2 | [A,D]4 [CE]2 | [DG]2 [DG]2 [CE]2 | [CF]4 [CE]2 | %13
 [B,D]4 z2 | [EG]4 [EA]2 | [GB]4 [GB]2 | [Ec]4 [EB]2 | [^CA]4 z2 | [Ec]4 [Gd]2 | [Ge]4 [Gd]2 | %20
 [Fd]2 [Ec]4 | [EB]4 [CA]2 | [EG]4 [DF]2 | [^CE]4 z2 | [A,D]2 [CE]2 [CF]2 | [DG]4 [CE]2 | %26
 [CF]4 [CE]2 | [B,D]4 z2 | [EG]4 [EA]2 | [GB]6 | [Ec]6 | [FA]6 | [DG]4 [CE]2 | [CF]2 [DG]2 [CE]2 | %34
 [B,E]6 |] %35
V:2
 [E,G,]4 [D,A,]2 | [C,C]4 [C,G,]2 | [F,,A,]4 [C,G,]2 | [G,,G,]4 z2 | [E,B,]4 [A,C]2 | [G,D]6 | %6
 [C,E]4 [G,,D]2 | [A,,C]4 [C,G,]2 | [G,,B,]4 [D,A,]2 | [A,,A,]4 z2 | [D,F,]4 [C,G,]2 | %11
 [B,,B,]2 [G,,B,]2 [C,G,]2 | [F,,A,]4 [C,G,]2 | [G,,G,]4 z2 | [E,B,]4 [A,C]2 | [G,D]4 [E,G,]2 | %16
 [A,,A,]4 [E,^G,]2 | [A,,A,]4 z2 | A,4 [G,B,]2 | [C,C]4 [G,,B,]2 | [D,A,]2 [A,,A,]4 | %21
 [E,^G,]4 [F,A,]2 | [C,C]4 [D,A,]2 | [A,,A,]4 z2 | [D,F,]2 [C,G,]2 [A,,A,]2 | [G,,B,]4 [A,,C]2 | %26
 [F,,A,]4 [C,G,]2 | [G,,G,]4 z2 | [E,B,]4 [A,C]2 | [G,D]6 | [C,C]6 | [F,,C]6 | [G,,B,]4 [C,G,]2 | %33
 [A,,A,]2 [G,,B,]2 [A,,A,]2 | [E,,^G,]6 |] %35
V:3
 x6 | x6 | x6 | x6 | x6 | x6 | x6 | x6 | x6 | x6 | x6 | x6 | x6 | x6 | x6 | x6 | x6 | x6 | A,4 x2 | %19
 x6 | x6 | x6 | x6 | x6 | x6 | x6 | x6 | x6 | x6 | x6 | x6 | x6 | x6 | x6 | x6 |] %35

